Suru++-Ubuntu/apps/symbolic/awf-symbolic.svg

<svg width="16" height="16" version="1.1" xmlns="http://www.w3.org/2000/svg">
 <g transform="translate(-331.99997,-239.99994)">
  <path transform="translate(331.99997,239.99994)" d="m3.9941406 1c-1.2582 0.0145-2.1788906-0.03060437-2.9316406 0.3847656-0.37637 0.20766-0.67323062 0.5593869-0.83789062 0.9980469-0.16467 0.43867-0.22460938 0.9595775-0.22460938 1.6171875v8c0 0.65761 0.059899375 1.178528 0.22460938 1.617188 0.16467 0.438659 0.46152062 0.790396 0.83789062 0.998046 0.75275 0.41532 1.6734506 0.370196 2.9316406 0.384766h0.0039063 8.0039061 0.003906c1.25819-0.0145 2.178891 0.030604 2.931641-0.384766 0.37637-0.20766 0.673221-0.559387 0.837891-0.998046 0.16449-0.438671 0.224609-0.959578 0.224609-1.617188v-8c0-0.65761-0.059899-1.1785175-0.224609-1.6171875-0.16466-0.43866-0.461521-0.7903869-0.837891-0.9980469-0.75275-0.41533997-1.673441-0.3702456-2.931641-0.3847656h-0.003906-8.0039061-0.0039063zm0.0058594 1h8c1.25852 0.0147 2.087175 0.0597987 2.453125 0.2617188 0.18341 0.1012 0.289159 0.2127362 0.386719 0.4726562 0.09743 0.25991 0.160156 0.673235 0.160156 1.265625v4h-2.5v3.519531a0.47987762 0.47987762 0 0 1-0.480469 0.480469h-8.0390622a0.47987762 0.47987762 0 0 1-0.4804688-0.480469v-3.519531h-2.5v-4c0-0.59239 0.0625962-1.005725 0.1601562-1.265625 0.0976-0.25991 0.2013557-0.3714662 0.3847657-0.4726562 0.36596-0.20191 1.1965481-0.2470088 2.4550781-0.2617188zm-0.5 6h0.9589844v-3.0410156h7.0820316v3.0410156h0.958984v-3.5195312a0.47987762 0.47987762 0 0 0-0.480469-0.4804688h-8.0390622a0.47987762 0.47987762 0 0 0-0.4804688 0.4804688v3.5195312zm8.041016 0h-7.0820316v3.041016h7.0820316v-3.041016z" style="fill:#808080"/>
 </g>
</svg>

<svg xmlns="http://www.w3.org/2000/svg" width="16" height="16" version="1.1">
 <g transform="translate(-331.99997,-239.99994)">
  <path style="fill:#808080" d="M 3.9941406 1 C 2.7359406 1.0145 1.81525 0.96939563 1.0625 1.3847656 C 0.68613 1.5924256 0.38926938 1.9441525 0.22460938 2.3828125 C 0.059939375 2.8214825 0 3.34239 0 4 L 0 12 C 0 12.65761 0.059899375 13.178528 0.22460938 13.617188 C 0.38927938 14.055847 0.68613 14.407584 1.0625 14.615234 C 1.81525 15.030554 2.7359506 14.98543 3.9941406 15 L 3.9980469 15 L 12.001953 15 L 12.005859 15 C 13.264049 14.9855 14.18475 15.030604 14.9375 14.615234 C 15.31387 14.407574 15.610721 14.055847 15.775391 13.617188 C 15.939881 13.178517 16 12.65761 16 12 L 16 4 C 16 3.34239 15.940101 2.8214825 15.775391 2.3828125 C 15.610731 1.9441525 15.31387 1.5924256 14.9375 1.3847656 C 14.18475 0.96942563 13.264059 1.01452 12.005859 1 L 12.001953 1 L 3.9980469 1 L 3.9941406 1 z M 4 2 L 12 2 C 13.25852 2.0147 14.087175 2.0597987 14.453125 2.2617188 C 14.636535 2.3629188 14.742284 2.474455 14.839844 2.734375 C 14.937274 2.994285 15 3.40761 15 4 L 15 8 L 12.5 8 L 12.5 11.519531 A 0.47987762 0.47987762 0 0 1 12.019531 12 L 3.9804688 12 A 0.47987762 0.47987762 0 0 1 3.5 11.519531 L 3.5 8 L 1 8 L 1 4 C 1 3.40761 1.0625962 2.994275 1.1601562 2.734375 C 1.2577562 2.474465 1.3615119 2.3629088 1.5449219 2.2617188 C 1.9108819 2.0598088 2.74147 2.01471 4 2 z M 3.5 8 L 4.4589844 8 L 4.4589844 4.9589844 L 11.541016 4.9589844 L 11.541016 8 L 12.5 8 L 12.5 4.4804688 A 0.47987762 0.47987762 0 0 0 12.019531 4 L 3.9804688 4 A 0.47987762 0.47987762 0 0 0 3.5 4.4804688 L 3.5 8 z M 11.541016 8 L 4.4589844 8 L 4.4589844 11.041016 L 11.541016 11.041016 L 11.541016 8 z" transform="translate(331.99997,239.99994)"/>
 </g>
</svg>
